X:1
T:Title
%%score { 1 | 2 }
L:1/8
M:6/4
K:Eb
V:1 treble nm="Grand Piano"
V:2 bass 
V:1
 z6 z4[Q:1/4=123] E2 | G2 G2 G2 G2 F2 E2 | G4 [FA]2 [GB]6 | c2 c2 c2 [GB]2 [GB]2 [EG]2 | %4
 [DF]4 [EG]2 [FA]4 [FA]2 | G2 G2 G2 G2 F2 E2 | G4 A2 B6 | e2 d2 c2 B2 B2 [CEA]2 | %8
[M:5/4] [B,EG]4 [A,DF]2 [G,E]4 |[M:1/4] [GB]2 |[M:6/4] [GB]4 [Ac]2 [GB]4 [EG]2 | [DF]4 [D_G]2 =G6 | %12
 G2 F2 E2 [Ge]2 [Gd]2 [Gc]2 | [FB]4 [E=A]2 [DB]4 [F_A]2 | G4 c2 B4 [GB]2 | [Ge]4 [Ee]2 [CE]6 | %16
[M:13/8] [Ee]2 [Ed]2 [Ec]2 [EB]2 [EB]3 [CEA]2 |[M:5/4] [B,EG]4 [A,DF]2 [G,E]4 |] %18
V:2
 z6 z4 [E,G,]2 | [E,B,E]2 [E,B,E]2 [E,B,E]2 [E,B,E]2 [E,A,E]2 [E,G,]2 | [E,B,E]4 [E,B,]2 [E,E]6 | %3
 [A,EA]2 [A,EA]2 [A,EA]2[K:bass] [E,E]2 [E,E]2 [E,B,]2 | [B,,B,]4 [B,,B,]2 [B,,B,]4 [B,,B,]2 | %5
 [E,B,E]2 [E,B,E]2 [E,B,E]2 [E,B,E]2 [E,A,E]2 [E,G,]2 | [E,B,E]4 [F,B,D]2 [G,B,E]6 | %7
 [A,CE]2 [A,B,E]2 [A,E]2 [G,B,E]2 [G,B,E]2 A,,2 |[M:5/4] B,,4 B,,2 E,4 |[M:1/4] [E,E]2 | %10
[M:6/4] [E,E]4 [E,E]2 [E,E]4 [E,B,]2 | [B,,B,]4 [B,,B,]2 [E,B,E]6 | %12
 [E,B,E]2 [E,A,E]2 [E,G,]2 [C,C]2 [D,=B,]2 [E,C]2 | [F,D]4 [F,C]2 [B,,B,]4 [D,B,]2 | %14
 [E,B,E]4 [E,A,E]2 [E,G,E]4 [E,E]2 | [E,B,]4 [E,G,]2 [A,,A,]6 | %16
[M:13/8] [A,,C]2 [A,,B,]2 [A,,A,]2 [B,,G,]2 [B,,G,]3 B,,2 |[M:5/4] B,,4 B,,2 E,4 |] %18

